X: 23014
T: Last Night In Doolin, The
R: reel
M: 4/4
K: Dmajor
|:E2 EF GABG|E4 B2 BA|GBAG F4|A2 AG FAGF|E4 G2 GF|EG F6:|
FGFED E3|:E2 FG F4|EF G4 GA|GFGF EDEF|GD E4 FG|F4 ED E2:|
|:e2 ef gabg|e4 b2 ba|gbag f4|a2 ag fagf|e4 g2 gf|eg f6:|
fgfed e3|:e2 fg f4|ef g4 ga|gfgf edef|gd e4 fg|f4 ed e2:|

